static/logos/butter-glyph-color.svg

<svg width="50" height="45" viewBox="0 0 50 45" fill="none" xmlns="http://www.w3.org/2000/svg">
<path d="M40.6706 2.86313L33.0682 0.791487C30.2505 0.0478201 27.1668 0.419652 24.5087 1.64139L7.12399 9.98108C2.81771 11.9465 0 16.4616 0 21.2423V26.6072C0 31.1224 2.44554 35.3189 6.37971 37.4968L14.7265 42.1714C16.6935 43.2865 18.7669 43.7647 20.8403 43.7647C23.1796 43.7647 25.5187 43.1273 27.5921 41.7992L44.2328 31.0162C47.8479 28.6789 49.9744 24.7481 49.9744 20.4986V14.9743C49.9744 9.23743 46.1462 4.24419 40.6706 2.86313Z" fill="#0A0B1E"/>
<path d="M9.78077 15.6113C7.60102 16.5675 6.21875 18.7985 6.21875 21.2419V26.6071C6.21875 28.7849 7.44152 31.0158 9.40862 32.1314L17.7554 36.8059C19.7224 37.9213 22.2743 37.9213 24.1351 36.5402L40.7753 25.9163C42.6361 24.8009 43.6996 22.7293 43.6996 20.6576V15.1333C43.6996 12.3179 41.7324 9.8745 39.021 9.1308L31.4185 7.16542C29.9298 6.79357 28.4945 6.89983 27.1122 7.53723L9.78077 15.6113Z" fill="#FFFD63"/>
</svg>

<svg xmlns="http://www.w3.org/2000/svg" width="71.111" height="64" fill="none" viewBox="0 0 50 45"><path fill="#0A0B1E" d="M40.67 2.863 33.069.791c-2.817-.743-5.901-.371-8.56.85L7.125 9.981C2.818 11.947 0 16.461 0 21.242v5.365c0 4.515 2.446 8.712 6.38 10.89l8.346 4.674c1.967 1.115 4.04 1.594 6.114 1.594 2.34 0 4.679-.638 6.752-1.966l16.64-10.783c3.616-2.337 5.742-6.268 5.742-10.517v-5.525c0-5.737-3.828-10.73-9.303-12.11Z"/><path fill="#FFFD63" d="M9.78 15.611c-2.179.956-3.561 3.188-3.561 5.63v5.366c0 2.178 1.223 4.409 3.19 5.524l8.346 4.675c1.967 1.115 4.52 1.115 6.38-.266l16.64-10.624c1.861-1.115 2.925-3.187 2.925-5.258v-5.525c0-2.815-1.968-5.258-4.679-6.002l-7.602-1.966c-1.49-.371-2.925-.265-4.307.372L9.781 15.611Z"/></svg>
